X:19
T:Gimlet
M:9/8
L:1/8
K:GDor
(fg)f   Te2d c3 |f3       fga bag| fgf    Te2d c2c|dcB B2c def:|
(A/B/c)A F2F F2F|(A/B/c)A F2A BAG|(A/B/c)A F2F F2e|g3  G2A BAG:|

% @@@@@@@@@@@@@@@@@@@@@@@@@@@@@@@@@@

%% 20. ===============================================================================

%  @DRUNKEN@
% ^Meg Young.^
%
% *THE Man figures round the first pair, the Woman following, and sett a little; the
% Woman figures round the 2d pair, the Man following, and sett a little.  *Cross up
% one pair, and sett a little; cross up the other pair, and sett a little.  *FIRST
% Man sett to 2d Woman, and turn her; first Woman to 2d Man, and turn him.  *Four
% hands round, and go Right and Left.

% @@@@@@@@@@@@@@@@@@@@@@@@@@@@@@@@@@

